X:1
T:Follow me - East
T:#
%%score [ 1 2 3 ] { ( 4 5 ) | 6 }
L:1/8
Q:1/4=140
M:3/4
K:C
V:1 treble nm="Soprano" snm="S"
V:2 treble nm="Alto" snm="A"
V:3 bass nm="Bass" snm="B"
V:4 treble nm="Practice"
V:5 treble 
V:6 bass 
V:1
 z6 |"^Follow me, sweet love" d3 c B2 | B3 A G2 | z6 | _B2 A2"^Michael East\n(1580?-1648)" G2 | %5
w: |Fol- low me,|fol- low me,||sweet love and|
 ^F3 (E F2) | G6 | z6 | G3 F E2 | E3 D C2 | G3 F E2 | A3 G ^F2 | !courtesy!=F3 E D2 | d2 d2 _B2 | %14
w: soul's de\- *|light,||fol- low me,|fol- low me,|fol- low me,|fol- low me,|fol- low me,|sweet love and|
 A4 A2 | B4 z2 | d2 e2 e2 | e3 (d B2) | c4 z2 | G2 E2 C2 | c4 G2 | E4 z2 | G2 A2 A2 | B4 B2 | %24
w: soul's de-|light;|Or else by|my ex\- *|ile|my soul is|se- ver'd|quite,|my soul is|se- ver'd|
 c2 G2 E2 | (CD EF) G2 | z2 G2 E2 | (DE FG) A2 | z2 A2 F2 | (EF GA) B2 | z2 B2 G2 | (FG AB) c2 | %32
w: quite: My hand,|my * * * hand,|my heart,|my * * * heart,|my faith,|my * * * faith,|my love,|my * * * love,|
 z2 c2 A2 | (GA Bc) d2 | z2 d2 B2 | (GA Bc) d2 | e2 d2 c2 | B4 z2 | d2 d3 d | d2 d2 d2 | _B2 A3 A | %41
w: my life,|my * * * life,|my life,|my * * * life,|my life is|thine,|O save thine|own if thou|wilt not do|
 B4 z2 | e2 d2 c2 | B4 z2 | E2 E3 E | E4 D2 |[Q:1/4=136][Q:1/4=136] E4[Q:1/4=131][Q:1/4=131] G2 | %47
w: mine,|O save thine|own,|O save thine|own if|thou wilt|
[Q:1/4=127][Q:1/4=127] ^F3[Q:1/4=123][Q:1/4=123] (E[Q:1/4=121][Q:1/4=121] F2) | %48
w: not do *|
[Q:1/4=80][Q:1/4=80] !fermata!G6 |] %49
w: mine.|
V:2
 z6 | z6 | d3 c B2 | B3 A G2 | D2 d2 _B2 | A4 A2 | B6 | B3 A G2 | z6 | G3 F E2 | E3 D C2 | %11
w: ||Fol \-low me,|fol- low me,|sweet love and|soul's de-|light,|fol- low me,||fol- low me,|fol- low me,|
 F3 E D2 | A3 G ^F2 | _B2 A2 G2 | ^F3 (E F2) | G4 z2 | B2 B2 A2 | G3 (F G2) | A4 z2 | z6 | %20
w: fol- low me,|fol- low me,|sweet love and|soul's de\- *|light;|Or else by|my ex\- *|ile||
 G2 E2 C2 | c4 G2 | E4 z2 | G2 D2 D2 | E4 z2 | z2 G2 E2 | (CD EF) G2 | z2 A2 F2 | (DE FG) A2 | %29
w: my soul is|se- ver'd|quite,|is se- ver'd|quite:|My hand,|my * * * hand,|my heart,|my * * * heart,|
 z2 B2 G2 | (EF GA) B2 | z2 c2 A2 | (FG AB) c2 | z2 d2 B2 | (GA Bc) d2 | z2 d2 B2 | G2 G3 G | %37
w: my faith,|my * * * faith,|my love,|my * * * love,|my life,|my * * * life,|my life,|my life is|
 G4 z2 | _B2 A2 G2 | ^F3 G A2 | G2 G2 ^F2 | G4 z2 | G2 G3 G | G4 z2 | c2 B2 A2 | ^G4 B2 | c4 c2 | %47
w: thine,|O save thine|own if thou|wilt not do|mine,|O save thine|own,|O save thine|own if|thou wilt|
 d3 (c A2) | !fermata!B6 |] %49
w: not do *|mine.|
V:3
 D3 C B,2 | B,3 A, G,2 | z6 | G,3 ^F, E,2 | G,2 ^F,2 G,2 | D,4 D,2 | G,6 | G,3 F, E,2 | %8
w: Fol- low me,|fol- low me,||fol- low me,|sweet love and|soul's de-|light,|fol- low me,|
 E,3 D, C,2 | C,4 C,2 | C,4 z2 | D,4 D,2 | D,4 z2 | G,2 ^F,2 G,2 | D,4 D,2 | G,4 z2 | G,2 E,2 A,2 | %17
w: fol- low me,|fol- low|me,|fol- low|me,|sweet love and|soul's de-|light;|Or else by|
 E,4 E,2 | A,4 C2 | C,4 C,2 | C,4 C,2 | C,4 z2 | C2 A,2 F,2 | G,4 G,2 | C,4 C,2 | C,4 C,2 | %26
w: my ex-|ile my|soul is|se- ver'd|quite,|my soul is|se- ver'd|quite: My|hand, my|
 C,4 C,2 | D,4 D,2 | D,4 D,2 | E,4 E,2 | E,4 E,2 | F,4 F,2 | F,4 F,2 | G,4 G,2 | G,4 G,2 | G,4 z2 | %36
w: hand, my|heart, my|heart, my|faith, my|faith, my|love, my|love, my|life, my|life, my|life,|
 C2 B,2 C2 | G,4 z2 | G,2 ^F,2 G,2 | D,3 E, ^F,2 | G,2 D,2 D,2 | G,4 z2 | C2 B,2 C2 | G,4 z2 | %44
w: my life is|thine,|O save thine|own if thou|wilt not do|mine,|O save thine|own,|
 A,2 ^G,2 A,2 | E,4 G,2 | C,4 E,2 | D,4 D,2 | !fermata!G,6 |] %49
w: O save thine|own if|thou wilt|not do|mine.|
V:4
 x4 x2 | d3 c B2 | B3 A G2 | x4 x2 | _B2 A2 G2 | ^F3 E F2 | G6 | x4 x2 | G3 F E2 | E3 D C2 | %10
 G3 F E2 | A3 G ^F2 | !courtesy!=F3 E D2 | d2 d2 _B2 | A4 A2 | B4 z2 | d2 e2 e2 | e3 d B2 | c4 z2 | %19
 G2 E2 C2 | c4 G2 | E4 x2 | G2 A2 A2 | B4 B2 | c2 G2 E2 | CD EF G2 | x2 G2 E2 | DE FG A2 | %28
 x2 A2 F2 | EF GA B2 | x2 B2 G2 | FG AB c2 | x2 c2 A2 | GA Bc d2 | x2 d2 B2 | GA Bc d2 | e2 d2 c2 | %37
 B4 z2 | d2 d3 d | d2 d2 d2 | _B2 A3 A | B4 z2 | e2 d2 c2 | B4 z2 | E2 E3 E | E4 D2 | E4 G2 | %47
 ^F3 E F2 | G6 |] %49
V:5
 z6 | x6 | d3 c B2 | B3 A G2 | D2 d2 _B2 | A4 A2 | B6 | B3 A G2 | x4 x2 | G3 F E2 | E3 D C2 | %11
 F3 E D2 | A3 G ^F2 | _B2 A2 G2 | ^F3 E F2 | G4 z2 | B2 B2 A2 | G3 F G2 | A4 z2 | x4 x2 | %20
 G2 E2 C2 | c4 G2 | E4 x2 | G2 D2 D2 | E4 x2 | x2 G2 E2 | CD EF G2 | x2 A2 F2 | DE FG A2 | %29
 x2 B2 G2 | EF GA B2 | x2 c2 A2 | FG AB c2 | x2 d2 B2 | GA Bc d2 | x2 d2 B2 | G2 G3 G | G4 z2 | %38
 _B2 A2 G2 | ^F3 G A2 | G2 G2 ^F2 | G4 z2 | G2 G3 G | G4 z2 | c2 B2 A2 | ^G4 B2 | c4 c2 | d3 c A2 | %48
 !fermata!B6 |] %49
V:6
 D3 C B,2 | B,3 A, G,2 | z6 | G,3 ^F, E,2 | G,2 ^F,2 G,2 | D,4 D,2 | G,6 | G,3 F, E,2 | %8
 E,3 D, C,2 | C,4 C,2 | C,4 z2 | D,4 D,2 | D,4 z2 | G,2 ^F,2 G,2 | D,4 D,2 | G,4 z2 | G,2 E,2 A,2 | %17
 E,4 E,2 | A,4 C2 | C,4 C,2 | C,4 C,2 | C,4 z2 | C2 A,2 F,2 | G,4 G,2 | C,4 C,2 | C,4 C,2 | %26
 C,4 C,2 | D,4 D,2 | D,4 D,2 | E,4 E,2 | E,4 E,2 | F,4 F,2 | F,4 F,2 | G,4 G,2 | G,4 G,2 | G,4 z2 | %36
 C2 B,2 C2 | G,4 z2 | G,2 ^F,2 G,2 | D,3 E, ^F,2 | G,2 D,2 D,2 | G,4 z2 | C2 B,2 C2 | G,4 z2 | %44
 A,2 ^G,2 A,2 | E,4 G,2 | C,4 E,2 | D,4 D,2 | !fermata!G,6 |] %49

